X:37
T:Reel 37
M:4/4
K:Dmaj
L:1/8
AG|FABA FDEC|DFFA d2cd|BAGF GFED|EFED B,2EG|FAEG FDEC|DFFA d2cd|BABc dBAF|EDEC D2|FA|Bded cABd|FdBd AdBc|dBAF GEFD|EDEF G2AG|FGFE  (3FGA Bc|dcBc B2AF|G2GE FDEF|Ddce d2|
